scenes/dorf/img/header-pattern.svg

<svg id="Layer_1" xmlns="http://www.w3.org/2000/svg" viewBox="0 0 579.9 369.1"><style>.st0{opacity:.2}.st1{fill:none;stroke:#53bfee;stroke-width:2.5;stroke-linecap:round;stroke-linejoin:round;stroke-miterlimit:10}</style><g id="Layer_2"><g class="st0" id="Layer_6"><path class="st1" d="M433.1 102.1c-22.4.8-40.9 7.5-55 20-9.7 8.6-17.4 19.9-22.8 33.6m145.9 116.4c19.6-19.3 29.9-45.6 28.9-74-.9-27.2-11.7-52.1-30.3-70.1M37 202.1c12.3-14.9 35.4-33 76.1-34.3 41.9-1.4 88.3 24 127.2 49.1-2.4-13.9-1-37.5 19-49M148 299.6c-4.6 21-22.4 40.3-55.8 41.5m37.2-87.1c7.1 3.2 19.2 13.6 19.9 32.5.1 4.4-.2 8.8-1.2 13.2M45.2 267.8c1.3 13.7 9.1 27.8 20.9 36.3-1.6-47.7 59-44.7 57.8-78.6m352.5-69.7c-10.9-11.4-25.8-18-42-17.5-13.5.5-23.7 3.7-31.5 10.2m93.3 73.1s-16.5 36.3-57.9 32.1c0 0 .3 12.7-7.9 18.7 12.5-1.8 23.8-5.6 33.4-11"/><path class="st1" d="M372.3 282.8c13.9 5.2 29.9 7.9 45.3 7.3 48.3-1.6 83.9-26.8 94.6-64m-293.5-41.2c-22.2-12.7-44.9-23.1-68.5-28.3 0 0 28.1-2.6 82.9 15.3"/><path class="st1" d="M123.4 267.4s10.7 4.8 11.2 19.6-8.4 38.3-42.9 39.5c-28.7 1-60.1-23.4-61.4-60.6-1.2-36.1 21.4-81.4 83.3-83.5 103.3-3.5 200.9 140.6 305 137.1 77.2-2.6 128.5-55.2 126.2-121.8-2.2-64.8-53.1-112.2-112.1-110.2-59.1 2-82 40.3-90.9 62.9"/><path class="st1" d="M448.9 173.8c-3-.8-6.2-1.2-9.6-1.1-15.3.5-23.4 10.1-29.7 26.7"/><path class="st1" d="M417.4 209.8c.5 14.4 13.1 29.1 31.4 28.5 16.4-.6 35.2-14.3 34.4-38.4-.8-24.1-19.8-41.7-44.4-40.8-64.6 2.2-39.8 116.5-87 118.1-12.5.4-21.1-6.7-21.4-17.4-.3-9.1 6.4-15.9 15.7-16.3 9.6-.3 15.2 9.7 15.2 9.7M322.5 268c-12.2-5.9-24.1-12.3-35.9-20.5 18.7 3.4 33.1-.5 51.5-17m-34.7-33.3c-.4-10.5-10.4-15-19.6-14.7-9.2.3-22.5 8.1-21.9 23.8.4 11.4 7.6 16.5 14.8 18.8"/><path class="st1" d="M287.2 220.3c11.4 2.6 26.5-7.4 26-23.5-.4-13-11.6-24.7-29.7-24.1-14.7.5-32.1 12.8-31.4 33.9.8 22.4 20.5 30.7 38.4 30.1 67.5-2.3 64.1-117.2 143.1-119.9 40.4-1.4 73.8 28.4 80.6 69.6m-193 163.9l-.5-16.2m-7.8 8.4l16.1-.6m-12.3 8.5l4.4-4.7m0 0l4.7 4.4m-9.7-15.8l4.7 4.4m0 0l4.5-4.7m-12.6 3.9l4.7 4.4m0 0l-4.4 4.8m15.9-9.7l-4.4 4.7m0 0l4.7 4.4m4.6-273.2l-.5-16.2m-7.8 8.3l16.2-.5m-12.4 8.5l4.4-4.7m0 0l4.7 4.4m-9.7-15.9l4.8 4.5m0 0l4.4-4.8m-12.6 4l4.8 4.4m0 0l-4.5 4.7m15.9-9.7l-4.4 4.8m0 0l4.7 4.4m211.5 203.7l-.6-16.2m-7.8 8.4l16.2-.6m-12.4 8.6l4.4-4.8m0 0l4.8 4.5m-9.7-15.9l4.7 4.4m0 0l4.4-4.7m-12.5 3.9l4.7 4.4m0 0l-4.4 4.8m15.8-9.7l-4.4 4.7m0 0l4.8 4.4M101.9 308l-1.1-32.1m-15.5 16.6l32.1-1.1m-24.6 16.9l8.8-9.4m0 0l9.4 8.7m-19.3-31.4l9.4 8.7m0 0l8.8-9.3M85 283.4l9.4 8.7m0 0l-8.8 9.4m31.5-19.2l-8.8 9.4m0 0l9.4 8.7M448.1 216.9l-.9-27.4M434 203.7l27.3-1m-20.9 14.4l7.4-8m0 0l8 7.5m-16.3-26.8l7.9 7.4m0 0l7.5-7.9m-21.2 6.6l8 7.5m0 0l-7.5 8m26.9-16.4l-7.5 8m0 0l8 7.5M300.5 96.5l-1-32.1M284 81l32-1.1m-24.5 16.9l8.7-9.4m0 0l9.4 8.8m-19.2-31.5l9.4 8.8m0 0l8.7-9.4m-24.9 7.8l9.4 8.8m0 0l-8.7 9.3m31.4-19.2l-8.7 9.4m0 0l9.3 8.7M290.2 310.2l-.4-12.9m-6.3 6.7l13-.5m-9.9 6.9l3.5-3.8m0 0l3.8 3.5m-7.8-12.7l3.8 3.5m0 0l3.6-3.8m-10.1 3.2l3.8 3.5m0 0l-3.6 3.8m12.8-7.7l-3.6 3.8m0 0l3.8 3.5M222.8 305.7l-.4-13m-6.3 6.7l13-.5m-10 6.9l3.6-3.8m0 0l3.8 3.5m-7.8-12.7l3.8 3.5m0 0l3.5-3.7m-10 3.1l3.8 3.6m0 0l-3.6 3.8m12.7-7.8l-3.5 3.8m0 0l3.8 3.5M57.6 247.7l-.6-18.8m-9.1 9.7l18.8-.6m-14.4 9.9l5.1-5.5m0 0l5.5 5.1m-11.3-18.4l5.5 5.1m0 0l5.2-5.5m-14.6 4.6l5.5 5.1m0 0l-5.2 5.5m18.5-11.2l-5.1 5.5m0 0l5.5 5.1M230.6 105.2l-.7-18.8m-9.1 9.7l18.9-.6m-14.5 9.9l5.2-5.5m0 0l5.5 5.2m-11.3-18.5l5.5 5.1m0 0l5.1-5.5m-14.6 4.6l5.5 5.2m0 0l-5.1 5.5m18.5-11.3l-5.2 5.5m0 0l5.5 5.1M365.2 223.1l-.6-18.8m-9.1 9.7l18.8-.6m-14.4 9.9l5.2-5.5m0 0l5.5 5.2m-11.3-18.5l5.5 5.1m0 0l5.1-5.5m-14.6 4.6l5.5 5.2m0 0l-5.1 5.5m18.5-11.3l-5.2 5.5m0 0l5.5 5.1M409.9 265.4l-.6-18.8m-9.1 9.7l18.8-.6m-14.4 9.9l5.1-5.5m0 0l5.5 5.1m-11.3-18.4l5.5 5.1m0 0l5.2-5.5M400 251l5.5 5.1m0 0l-5.2 5.5m18.5-11.2l-5.1 5.5m0 0l5.5 5.1M569.4 153.4l-.7-18.9m-9.1 9.8l18.9-.7m-14.5 9.9l5.2-5.5m0 0l5.5 5.2m-11.3-18.5l5.5 5.2m0 0l5.1-5.5m-14.6 4.5l5.5 5.2m0 0l-5.1 5.5m18.5-11.3l-5.2 5.5m0 0l5.5 5.2M11.2 315.7l-.7-18.8m-9.1 9.7l18.9-.6m-14.5 9.9l5.2-5.5m0 0l5.5 5.2M5.2 297.1l5.5 5.1m0 0l5.2-5.5m-14.7 4.6l5.6 5.2m0 0L1.6 312m18.5-11.3l-5.2 5.5m0 0l5.5 5.1M197.4 240.5l-.4-13m-6.3 6.7l13-.5m-9.9 6.9l3.5-3.8m0 0l3.8 3.5m-7.8-12.7l3.8 3.5m0 0l3.6-3.8m-10.1 3.2l3.8 3.6m0 0l-3.5 3.8m12.7-7.8l-3.6 3.8m0 0l3.8 3.5M52.3 169.8l-.4-13m-6.3 6.7l13-.5m-10 6.9l3.6-3.8m0 0l3.8 3.5m-7.8-12.7l3.8 3.5m0 0l3.5-3.7m-10 3.1l3.8 3.6m0 0l-3.6 3.8m12.7-7.8l-3.5 3.8m0 0l3.8 3.5M337.2 187.2l-.4-13m-6.3 6.7l13-.4m-10 6.8l3.6-3.8m0 0l3.8 3.6m-7.8-12.8l3.8 3.6m0 0l3.5-3.8m-10 3.2l3.8 3.5m0 0l-3.6 3.8m12.8-7.8l-3.6 3.8m0 0l3.8 3.6M258.2 42.8l-.4-13m-6.3 6.7l13-.4m-9.9 6.8l3.5-3.8m0 0l3.8 3.6M254.1 30l3.8 3.5m0 0l3.6-3.8m-10.1 3.2l3.8 3.5m0 0l-3.6 3.8m12.8-7.8l-3.6 3.8m0 0l3.8 3.6M160.1 347.4l-.4-12.9m-6.3 6.7l13-.5m-9.9 6.9l3.5-3.8m0 0l3.8 3.5m-7.8-12.7l3.8 3.5m0 0l3.6-3.8m-10.1 3.2l3.8 3.6m0 0l-3.5 3.7m12.7-7.7l-3.6 3.8m0 0l3.8 3.5M391.6 363.5l-.5-12.9m-6.2 6.7l12.9-.5m-9.9 6.9l3.5-3.8m0 0l3.8 3.5m-7.7-12.7l3.7 3.5m0 0l3.6-3.8m-10.1 3.2l3.8 3.5m0 0l-3.5 3.8m12.7-7.7l-3.5 3.8m0 0l3.8 3.5"/><path class="st1" d="M341.9 160.3s-17.7.6-22.3 16.9c0 0-12.3-18.5-33.1-15.3m11.9-128.2c6.1-.2 21.9.4 36.4 10.8 9.7 6.9 21.4 20.2 22.2 44.4m-158.8 49.4c6.5 1.3 12.6 2.7 18.5 4.1 14.6 3.4 27.2 5.3 40.5 5.9 40.2 1.5 57.5-16.6 60.2-25.1-5.1 2.5-11.5 4.5-19.4 4.7-12.3.4-24-3.8-33.1-11.9-5.8-5.2-10.1-11.7-12.6-19M95.1 142.2c31.3-8.1 56-9.3 76.7-7.7"/><path class="st1" d="M322.9 105.5s-8.3 10.9-25.3 11.5c-19.2.7-36.5-13.7-37.2-34.3-.7-21.5 14.8-37.5 38.4-38.3 17.3-.6 46.3 9.2 47.5 44.8 1.3 38.4-37.3 70-88.8 69.7-46.5-.3-82.2-33.4-183.7.9M421.6 334c-.9 0-1.7.1-2.6.1-18.6.6-37.6-2.9-55.4-9.2 1.1 3.7 1.7 7.3 1.8 11 .2 5.9-.7 11-2.4 15.6m-39.7-34.2c-14.3.5-27.5 10.5-27 25.5.5 13.4 10.6 25.7 29.5 25 14.7-.5 29.5-12.2 28.9-31.5-.9-26.4-28.6-44.7-46.5-56.6"/><path class="st1" d="M313.3 298.6s-34.3-19.1-45-26.9c13 17.6 6.4 55.3-9.1 65.9m48-26.7c-9 3.5-20.1 11.4-23 28.6m56.7 7.9s9.1-24.8-17.1-42.5M254 316.6s12.2-25.5-.7-51.2M191 276.9c-13.9-.1-22.4 9.1-21.9 24.3.5 15.6 14.4 29.2 37 28.4 22-.7 40.6-18.3 39.6-46.5-1-28.3-30.4-72.6-75.3-89.4m-110.5 81c-.8-24.6 52.2-28.3 51.3-56-.4-10.6-8.7-18.3-18.8-18-9.8.3-17.5 8.2-17.2 17.2.4 10.6 12.3 12.1 18 8m88.2 64.7c-5.7 11.7 4.3 33.6 33.6 27.3"/><path class="st1" d="M155.7 231.8c9.7 10 24.9 2.1 23.9-12.5-.8-12-12.4-18.5-23.2-17.8-16.7 1.2-21.3 16.7-20.7 26.3.9 12.8 11.4 28.2 40.3 24.2 34.5-4.7 56.4 4.8 57.3 32.1-4.2-4.5-19.3-7-27 2.7 0 0 2.4-23.5-19.1-22.8-15.7.5-26.3 16.1-28 31.2m126.6-160.1c-15.4 5.4-38 3.5-53.5-1.6"/></g></g></svg>

<svg id="Layer_1" xmlns="http://www.w3.org/2000/svg" viewBox="0 0 579.9 369.1"><style>.st0{opacity:.2}.st1{fill:none;stroke:#53bfee;stroke-width:2.5;stroke-linecap:round;stroke-linejoin:round;stroke-miterlimit:10}</style><g id="Layer_2"><g class="st0" id="Layer_6"><path class="st1" d="M433.1 102.1c-22.4.8-40.9 7.5-55 20-9.7 8.6-17.4 19.9-22.8 33.6M501.2 272.1c19.6-19.3 29.9-45.6 28.9-74-.9-27.2-11.7-52.1-30.3-70.1M37 202.1c12.3-14.9 35.4-33 76.1-34.3 41.9-1.4 88.3 24 127.2 49.1-2.4-13.9-1-37.5 19-49M148 299.6c-4.6 21-22.4 40.3-55.8 41.5M129.4 254c7.1 3.2 19.2 13.6 19.9 32.5.1 4.4-.2 8.8-1.2 13.2M45.2 267.8c1.3 13.7 9.1 27.8 20.9 36.3-1.6-47.7 59-44.7 57.8-78.6M476.4 155.8c-10.9-11.4-25.8-18-42-17.5-13.5.5-23.7 3.7-31.5 10.2M496.2 221.6s-16.5 36.3-57.9 32.1c0 0 .3 12.7-7.9 18.7 12.5-1.8 23.8-5.6 33.4-11"/><path class="st1" d="M372.3 282.8c13.9 5.2 29.9 7.9 45.3 7.3 48.3-1.6 83.9-26.8 94.6-64M218.7 184.9c-22.2-12.7-44.9-23.1-68.5-28.3 0 0 28.1-2.6 82.9 15.3"/><path class="st1" d="M123.4 267.4s10.7 4.8 11.2 19.6-8.4 38.3-42.9 39.5c-28.7 1-60.1-23.4-61.4-60.6-1.2-36.1 21.4-81.4 83.3-83.5 103.3-3.5 200.9 140.6 305 137.1 77.2-2.6 128.5-55.2 126.2-121.8-2.2-64.8-53.1-112.2-112.1-110.2-59.1 2-82 40.3-90.9 62.9"/><path class="st1" d="M448.9 173.8c-3-.8-6.2-1.2-9.6-1.1-15.3.5-23.4 10.1-29.7 26.7"/><path class="st1" d="M417.4 209.8c.5 14.4 13.1 29.1 31.4 28.5 16.4-.6 35.2-14.3 34.4-38.4-.8-24.1-19.8-41.7-44.4-40.8-64.6 2.2-39.8 116.5-87 118.1-12.5.4-21.1-6.7-21.4-17.4-.3-9.1 6.4-15.9 15.7-16.3 9.6-.3 15.2 9.7 15.2 9.7M322.5 268c-12.2-5.9-24.1-12.3-35.9-20.5 18.7 3.4 33.1-.5 51.5-17M303.4 197.2c-.4-10.5-10.4-15-19.6-14.7-9.2.3-22.5 8.1-21.9 23.8.4 11.4 7.6 16.5 14.8 18.8"/><path class="st1" d="M287.2 220.3c11.4 2.6 26.5-7.4 26-23.5-.4-13-11.6-24.7-29.7-24.1-14.7.5-32.1 12.8-31.4 33.9.8 22.4 20.5 30.7 38.4 30.1 67.5-2.3 64.1-117.2 143.1-119.9 40.4-1.4 73.8 28.4 80.6 69.6M321.2 350.3l-.5-16.2M312.9 342.5l16.1-.6M316.7 350.4l4.4-4.7M321.1 345.7l4.7 4.4M316.1 334.3l4.7 4.4M320.8 338.7l4.5-4.7M312.7 337.9l4.7 4.4M317.4 342.3l-4.4 4.8M328.9 337.4l-4.4 4.7M324.5 342.1l4.7 4.4M333.8 73.3l-.5-16.2M325.5 65.4l16.2-.5M329.3 73.4l4.4-4.7M333.7 68.7l4.7 4.4M328.7 57.2l4.8 4.5M333.5 61.7l4.4-4.8M325.3 60.9l4.8 4.4M330.1 65.3l-4.5 4.7M341.5 60.3l-4.4 4.8M337.1 65.1l4.7 4.4M553.3 273.2l-.6-16.2M544.9 265.4l16.2-.6M548.7 273.4l4.4-4.8M553.1 268.6l4.8 4.5M548.2 257.2l4.7 4.4M552.9 261.6l4.4-4.7M544.8 260.8l4.7 4.4M549.5 265.2l-4.4 4.8M560.9 260.3l-4.4 4.7M556.5 265l4.8 4.4M101.9 308l-1.1-32.1M85.3 292.5l32.1-1.1M92.8 308.3l8.8-9.4M101.6 298.9l9.4 8.7M91.7 276.2l9.4 8.7M101.1 284.9l8.8-9.3M85 283.4l9.4 8.7M94.4 292.1l-8.8 9.4M117.1 282.3l-8.8 9.4M108.3 291.7l9.4 8.7"/><g><path class="st1" d="M448.1 216.9l-.9-27.4M434 203.7l27.3-1M440.4 217.1l7.4-8M447.8 209.1l8 7.5M439.5 189.8l7.9 7.4M447.4 197.2l7.5-7.9M433.7 195.9l8 7.5M441.7 203.4l-7.5 8M461.1 195l-7.5 8M453.6 203l8 7.5"/></g><g><path class="st1" d="M300.5 96.5l-1-32.1M284 81l32-1.1M291.5 96.8l8.7-9.4M300.2 87.4l9.4 8.8M290.4 64.7l9.4 8.8M299.8 73.5l8.7-9.4M283.6 71.9l9.4 8.8M293 80.7l-8.7 9.3M315.7 70.8l-8.7 9.4M307 80.2l9.3 8.7"/></g><g><path class="st1" d="M290.2 310.2l-.4-12.9M283.5 304l13-.5M286.6 310.4l3.5-3.8M290.1 306.6l3.8 3.5M286.1 297.4l3.8 3.5M289.9 300.9l3.6-3.8M283.4 300.3l3.8 3.5M287.2 303.8l-3.6 3.8M296.4 299.9l-3.6 3.8M292.8 303.7l3.8 3.5"/></g><g><path class="st1" d="M222.8 305.7l-.4-13M216.1 299.4l13-.5M219.1 305.8l3.6-3.8M222.7 302l3.8 3.5M218.7 292.8l3.8 3.5M222.5 296.3l3.5-3.7M216 295.7l3.8 3.6M219.8 299.3l-3.6 3.8M228.9 295.3l-3.5 3.8M225.4 299.1l3.8 3.5"/></g><g><path class="st1" d="M57.6 247.7l-.6-18.8M47.9 238.6l18.8-.6M52.3 247.9l5.1-5.5M57.4 242.4l5.5 5.1M51.6 229.1l5.5 5.1M57.1 234.2l5.2-5.5M47.7 233.3l5.5 5.1M53.2 238.4l-5.2 5.5M66.5 232.7l-5.1 5.5M61.4 238.2l5.5 5.1"/></g><g><path class="st1" d="M230.6 105.2l-.7-18.8M220.8 96.1l18.9-.6M225.2 105.4l5.2-5.5M230.4 99.9l5.5 5.2M224.6 86.6l5.5 5.1M230.1 91.7l5.1-5.5M220.6 90.8l5.5 5.2M226.1 96l-5.1 5.5M239.5 90.2l-5.2 5.5M234.3 95.7l5.5 5.1"/></g><g><path class="st1" d="M365.2 223.1l-.6-18.8M355.5 214l18.8-.6M359.9 223.3l5.2-5.5M365.1 217.8l5.5 5.2M359.3 204.5l5.5 5.1M364.8 209.6l5.1-5.5M355.3 208.7l5.5 5.2M360.8 213.9l-5.1 5.5M374.2 208.1l-5.2 5.5M369 213.6l5.5 5.1"/></g><g><path class="st1" d="M409.9 265.4l-.6-18.8M400.2 256.3l18.8-.6M404.6 265.6l5.1-5.5M409.7 260.1l5.5 5.1M403.9 246.8l5.5 5.1M409.4 251.9l5.2-5.5M400 251l5.5 5.1M405.5 256.1l-5.2 5.5M418.8 250.4l-5.1 5.5M413.7 255.9l5.5 5.1"/></g><g><path class="st1" d="M569.4 153.4l-.7-18.9M559.6 144.3l18.9-.7M564 153.5l5.2-5.5M569.2 148l5.5 5.2M563.4 134.7l5.5 5.2M568.9 139.9l5.1-5.5M559.4 138.9l5.5 5.2M564.9 144.1l-5.1 5.5M578.3 138.3l-5.2 5.5M573.1 143.8l5.5 5.2"/></g><g><path class="st1" d="M11.2 315.7l-.7-18.8M1.4 306.6l18.9-.6M5.8 315.9l5.2-5.5M11 310.4l5.5 5.2M5.2 297.1l5.5 5.1M10.7 302.2l5.2-5.5M1.2 301.3l5.6 5.2M6.8 306.5L1.6 312M20.1 300.7l-5.2 5.5M14.9 306.2l5.5 5.1"/></g><g><path class="st1" d="M197.4 240.5l-.4-13M190.7 234.2l13-.5M193.8 240.6l3.5-3.8M197.3 236.8l3.8 3.5M193.3 227.6l3.8 3.5M197.1 231.1l3.6-3.8M190.6 230.5l3.8 3.6M194.4 234.1l-3.5 3.8M203.6 230.1l-3.6 3.8M200 233.9l3.8 3.5"/></g><g><path class="st1" d="M52.3 169.8l-.4-13M45.6 163.5l13-.5M48.6 169.9l3.6-3.8M52.2 166.1l3.8 3.5M48.2 156.9l3.8 3.5M52 160.4l3.5-3.7M45.5 159.8l3.8 3.6M49.3 163.4l-3.6 3.8M58.4 159.4l-3.5 3.8M54.9 163.2l3.8 3.5"/></g><g><path class="st1" d="M337.2 187.2l-.4-13M330.5 180.9l13-.4M333.5 187.3l3.6-3.8M337.1 183.5l3.8 3.6M333.1 174.3l3.8 3.6M336.9 177.9l3.5-3.8M330.4 177.3l3.8 3.5M334.2 180.8l-3.6 3.8M343.4 176.8l-3.6 3.8M339.8 180.6l3.8 3.6"/></g><g><path class="st1" d="M258.2 42.8l-.4-13M251.5 36.5l13-.4M254.6 42.9l3.5-3.8M258.1 39.1l3.8 3.6M254.1 30l3.8 3.5M257.9 33.5l3.6-3.8M251.4 32.9l3.8 3.5M255.2 36.4l-3.6 3.8M264.4 32.4l-3.6 3.8M260.8 36.2l3.8 3.6"/></g><g><path class="st1" d="M160.1 347.4l-.4-12.9M153.4 341.2l13-.5M156.5 347.6l3.5-3.8M160 343.8l3.8 3.5M156 334.6l3.8 3.5M159.8 338.1l3.6-3.8M153.3 337.5l3.8 3.6M157.1 341.1l-3.5 3.7M166.3 337.1l-3.6 3.8M162.7 340.9l3.8 3.5"/></g><g><path class="st1" d="M391.6 363.5l-.5-12.9M384.9 357.3l12.9-.5M387.9 363.7l3.5-3.8M391.4 359.9l3.8 3.5M387.5 350.7l3.7 3.5M391.2 354.2l3.6-3.8M384.7 353.6l3.8 3.5M388.5 357.1l-3.5 3.8M397.7 353.2l-3.5 3.8M394.2 357l3.8 3.5"/></g><path class="st1" d="M341.9 160.3s-17.7.6-22.3 16.9c0 0-12.3-18.5-33.1-15.3M298.4 33.7c6.1-.2 21.9.4 36.4 10.8 9.7 6.9 21.4 20.2 22.2 44.4M198.2 138.3c6.5 1.3 12.6 2.7 18.5 4.1 14.6 3.4 27.2 5.3 40.5 5.9 40.2 1.5 57.5-16.6 60.2-25.1-5.1 2.5-11.5 4.5-19.4 4.7-12.3.4-24-3.8-33.1-11.9-5.8-5.2-10.1-11.7-12.6-19M95.1 142.2c31.3-8.1 56-9.3 76.7-7.7"/><path class="st1" d="M322.9 105.5s-8.3 10.9-25.3 11.5c-19.2.7-36.5-13.7-37.2-34.3-.7-21.5 14.8-37.5 38.4-38.3 17.3-.6 46.3 9.2 47.5 44.8 1.3 38.4-37.3 70-88.8 69.7-46.5-.3-82.2-33.4-183.7.9M421.6 334c-.9 0-1.7.1-2.6.1-18.6.6-37.6-2.9-55.4-9.2 1.1 3.7 1.7 7.3 1.8 11 .2 5.9-.7 11-2.4 15.6M323.3 317.3c-14.3.5-27.5 10.5-27 25.5.5 13.4 10.6 25.7 29.5 25 14.7-.5 29.5-12.2 28.9-31.5-.9-26.4-28.6-44.7-46.5-56.6"/><path class="st1" d="M313.3 298.6s-34.3-19.1-45-26.9c13 17.6 6.4 55.3-9.1 65.9M307.2 310.9c-9 3.5-20.1 11.4-23 28.6M340.9 347.4s9.1-24.8-17.1-42.5M254 316.6s12.2-25.5-.7-51.2M191 276.9c-13.9-.1-22.4 9.1-21.9 24.3.5 15.6 14.4 29.2 37 28.4 22-.7 40.6-18.3 39.6-46.5-1-28.3-30.4-72.6-75.3-89.4M59.9 274.7c-.8-24.6 52.2-28.3 51.3-56-.4-10.6-8.7-18.3-18.8-18-9.8.3-17.5 8.2-17.2 17.2.4 10.6 12.3 12.1 18 8M181.4 290.6c-5.7 11.7 4.3 33.6 33.6 27.3"/><path class="st1" d="M155.7 231.8c9.7 10 24.9 2.1 23.9-12.5-.8-12-12.4-18.5-23.2-17.8-16.7 1.2-21.3 16.7-20.7 26.3.9 12.8 11.4 28.2 40.3 24.2 34.5-4.7 56.4 4.8 57.3 32.1-4.2-4.5-19.3-7-27 2.7 0 0 2.4-23.5-19.1-22.8-15.7.5-26.3 16.1-28 31.2M285.8 135.1c-15.4 5.4-38 3.5-53.5-1.6"/></g></g></svg>
